public/images/logotype.svg

<svg width="174" height="40" fill="none" xmlns="http://www.w3.org/2000/svg"><g clip-path="url(#clip0)"><circle cx="20" cy="20" r="20" fill="url(#paint0_linear)"/><rect x="9.59998" y="9.33337" width="9.6" height="9.6" rx="2.4" fill="#fff"/><rect x="9.59998" y="21.0667" width="9.6" height="9.6" rx="2.4" fill="#fff"/><rect x="21.3333" y="21.0667" width="9.6" height="9.6" rx="2.4" fill="#fff"/><path fill-rule="evenodd" clip-rule="evenodd" d="M24.4362 9.04215c.9373-.93726 2.4569-.93726 3.3942 0l3.3941 3.39415c.9372.9372.9372 2.4568 0 3.3941l-3.3941 3.3941c-.9373.9372-2.4569.9372-3.3942 0l-3.3941-3.3941c-.9372-.9373-.9372-2.4569 0-3.3941l3.3941-3.39415z" fill="#fff"/><path d="M56.2712 11.0976h4.092L67.4648 30h-3.9336l-1.584-4.5144h-7.2336L53.1296 30H49.196l7.0752-18.9024zm4.5144 11.1144l-1.6632-4.752-.6864-2.2704h-.2112l-.6864 2.2704-1.6896 4.752h4.9368zm8.0596-5.676h3.2472v1.6368h.2112c.3696-.5808.9064-1.0648 1.6104-1.452.704-.4048 1.5136-.6072 2.4288-.6072 1.2144 0 2.3144.308 3.3.924 1.0032.5984 1.7864 1.4432 2.3496 2.5344.5632 1.0912.8448 2.3232.8448 3.696 0 1.3904-.2816 2.6312-.8448 3.7224-.5632 1.0736-1.3464 1.9184-2.3496 2.5344-.9856.5984-2.0856.8976-3.3.8976-.9152 0-1.7336-.1936-2.4552-.5808-.704-.3872-1.232-.8712-1.584-1.452h-.2112l.2112 1.9008v5.412h-3.4584V16.536zm6.8904 10.692c.6512 0 1.2584-.1672 1.8216-.5016.5632-.3344 1.012-.8008 1.3464-1.3992.3344-.5984.5016-1.2848.5016-2.0592 0-.7744-.1672-1.4608-.5016-2.0592-.3344-.5984-.7832-1.056-1.3464-1.3728-.5632-.3344-1.1704-.5016-1.8216-.5016-.6336 0-1.232.1672-1.7952.5016-.5632.3168-1.012.7744-1.3464 1.3728-.3344.5984-.5016 1.2848-.5016 2.0592 0 .7744.1672 1.4608.5016 2.0592.3344.5984.7832 1.0648 1.3464 1.3992.5632.3344 1.1616.5016 1.7952.5016zm8.6834-10.692h3.2472v1.6368h.2112c.3696-.5808.9064-1.0648 1.6104-1.452.704-.4048 1.5136-.6072 2.4288-.6072 1.2144 0 2.3144.308 3.3.924 1.0032.5984 1.7864 1.4432 2.3496 2.5344.5632 1.0912.8448 2.3232.8448 3.696 0 1.3904-.2816 2.6312-.8448 3.7224-.5632 1.0736-1.3464 1.9184-2.3496 2.5344-.9856.5984-2.0856.8976-3.3.8976-.9152 0-1.7336-.1936-2.4552-.5808-.704-.3872-1.232-.8712-1.584-1.452h-.2112l.2112 1.9008v5.412H84.419V16.536zm6.8904 10.692c.6512 0 1.2584-.1672 1.8216-.5016.5632-.3344 1.012-.8008 1.3464-1.3992.3344-.5984.5016-1.2848.5016-2.0592 0-.7744-.1672-1.4608-.5016-2.0592-.3344-.5984-.7832-1.056-1.3464-1.3728-.5632-.3344-1.1704-.5016-1.8216-.5016-.6336 0-1.232.1672-1.7952.5016-.5632.3168-1.012.7744-1.3464 1.3728-.3344.5984-.5016 1.2848-.5016 2.0592 0 .7744.1672 1.4608.5016 2.0592.3344.5984.7832 1.0648 1.3464 1.3992.5632.3344 1.1616.5016 1.7952.5016z" fill="#007AFF"/><path d="M100.831 11.0976h7.392c1.056 0 2.024.22 2.904.66.898.44 1.602 1.0384 2.112 1.7952.511.7568.766 1.584.766 2.4816 0 .9504-.238 1.7776-.713 2.4816-.457.6864-1.065 1.2144-1.821 1.584v.2112c.985.352 1.768.9152 2.349 1.6896.581.7568.871 1.672.871 2.7456 0 1.0384-.281 1.9624-.844 2.772-.546.792-1.294 1.408-2.244 1.848-.933.4224-1.972.6336-3.116.6336h-7.656V11.0976zm7.128 7.7088c.775 0 1.391-.2112 1.848-.6336.476-.44.713-.9856.713-1.6368 0-.6336-.229-1.1616-.686-1.584-.44-.44-1.03-.66-1.769-.66h-3.67v4.5144h3.564zm.396 7.9464c.863 0 1.532-.22 2.007-.66.493-.4576.739-1.0472.739-1.7688s-.246-1.3112-.739-1.7688-1.197-.6864-2.112-.6864h-3.855v4.884h3.96zm13.232 3.6696c-1.619 0-2.851-.5016-3.696-1.5048-.845-1.0032-1.267-2.4024-1.267-4.1976v-8.184h3.458v7.7616c0 .9152.22 1.6368.66 2.1648.44.5104 1.021.7656 1.742.7656.986 0 1.769-.3608 2.35-1.0824.581-.7216.871-1.6368.871-2.7456v-6.864h3.459V30h-3.248v-1.6896h-.211c-.405.6512-.977 1.1704-1.716 1.5576-.721.3696-1.522.5544-2.402.5544zm12.18-15.3648c-.616 0-1.144-.22-1.584-.66-.44-.44-.66-.968-.66-1.584 0-.616.22-1.1352.66-1.5576.44-.44.968-.66 1.584-.66.616 0 1.135.22 1.557.66.44.4224.66.9416.66 1.5576 0 .616-.22 1.144-.66 1.584-.422.44-.941.66-1.557.66zm-1.743 1.4784h3.459V30h-3.459V16.536zm6.365-5.4384h3.459V30h-3.459V11.0976zm11.791 19.3248c-1.215 0-2.324-.2992-3.327-.8976-.985-.616-1.769-1.4608-2.349-2.5344-.564-1.0912-.845-2.332-.845-3.7224 0-1.3728.281-2.6048.845-3.696.58-1.0912 1.364-1.936 2.349-2.5344 1.003-.616 2.112-.924 3.327-.924.915 0 1.724.2024 2.428.6072.704.3872 1.241.8712 1.611 1.452h.211l-.211-1.9008v-5.1744h3.432V30h-3.221v-1.6104h-.211c-.352.5808-.889 1.0648-1.611 1.452-.704.3872-1.513.5808-2.428.5808zm.58-3.1944c.652 0 1.259-.1672 1.822-.5016.563-.3344 1.012-.8008 1.346-1.3992.335-.5984.502-1.2848.502-2.0592 0-.7744-.167-1.4608-.502-2.0592-.334-.5984-.783-1.056-1.346-1.3728-.563-.3344-1.17-.5016-1.822-.5016-.633 0-1.232.1672-1.795.5016-.563.3168-1.012.7744-1.346 1.3728-.335.5984-.502 1.2848-.502 2.0592 0 .7744.167 1.4608.502 2.0592.334.5984.783 1.0648 1.346 1.3992.563.3344 1.162.5016 1.795.5016zm13.77 2.1384l-5.676-12.8304h3.934l3.485 8.3688h.211l3.353-8.3688h3.854l-8.316 19.1664h-3.722l2.877-6.336z" fill="#262626"/></g><defs><linearGradient id="paint0_linear" x1="0" y1="0" x2="0" y2="40" gradientUnits="userSpaceOnUse"><stop stop-color="#00B2FF"/><stop offset="1" stop-color="#007AFF"/></linearGradient><clipPath id="clip0"><path fill="#fff" d="M0 0h174v40H0z"/></clipPath></defs></svg>

<svg width="174" height="40" viewBox="0 0 174 40" fill="none" xmlns="http://www.w3.org/2000/svg">
<g clip-path="url(#clip0)">
<circle cx="20" cy="20" r="20" fill="url(#paint0_linear)"/>
<rect x="9.59998" y="9.33337" width="9.6" height="9.6" rx="2.4" fill="white"/>
<rect x="9.59998" y="21.0667" width="9.6" height="9.6" rx="2.4" fill="white"/>
<rect x="21.3333" y="21.0667" width="9.6" height="9.6" rx="2.4" fill="white"/>
<path fill-rule="evenodd" clip-rule="evenodd" d="M24.4362 9.04215C25.3735 8.10489 26.8931 8.10489 27.8304 9.04215L31.2245 12.4363C32.1617 13.3735 32.1617 14.8931 31.2245 15.8304L27.8304 19.2245C26.8931 20.1617 25.3735 20.1617 24.4362 19.2245L21.0421 15.8304C20.1049 14.8931 20.1049 13.3735 21.0421 12.4363L24.4362 9.04215Z" fill="white"/>
<path d="M56.2712 11.0976H60.3632L67.4648 30H63.5312L61.9472 25.4856H54.7136L53.1296 30H49.196L56.2712 11.0976ZM60.7856 22.212L59.1224 17.46L58.436 15.1896H58.2248L57.5384 17.46L55.8488 22.212H60.7856ZM68.8452 16.536H72.0924V18.1728H72.3036C72.6732 17.592 73.21 17.108 73.914 16.7208C74.618 16.316 75.4276 16.1136 76.3428 16.1136C77.5572 16.1136 78.6572 16.4216 79.6428 17.0376C80.646 17.636 81.4292 18.4808 81.9924 19.572C82.5556 20.6632 82.8372 21.8952 82.8372 23.268C82.8372 24.6584 82.5556 25.8992 81.9924 26.9904C81.4292 28.064 80.646 28.9088 79.6428 29.5248C78.6572 30.1232 77.5572 30.4224 76.3428 30.4224C75.4276 30.4224 74.6092 30.2288 73.8876 29.8416C73.1836 29.4544 72.6556 28.9704 72.3036 28.3896H72.0924L72.3036 30.2904V35.7024H68.8452V16.536ZM75.7356 27.228C76.3868 27.228 76.994 27.0608 77.5572 26.7264C78.1204 26.392 78.5692 25.9256 78.9036 25.3272C79.238 24.7288 79.4052 24.0424 79.4052 23.268C79.4052 22.4936 79.238 21.8072 78.9036 21.2088C78.5692 20.6104 78.1204 20.1528 77.5572 19.836C76.994 19.5016 76.3868 19.3344 75.7356 19.3344C75.102 19.3344 74.5036 19.5016 73.9404 19.836C73.3772 20.1528 72.9284 20.6104 72.594 21.2088C72.2596 21.8072 72.0924 22.4936 72.0924 23.268C72.0924 24.0424 72.2596 24.7288 72.594 25.3272C72.9284 25.9256 73.3772 26.392 73.9404 26.7264C74.5036 27.0608 75.102 27.228 75.7356 27.228ZM84.419 16.536H87.6662V18.1728H87.8774C88.247 17.592 88.7838 17.108 89.4878 16.7208C90.1918 16.316 91.0014 16.1136 91.9166 16.1136C93.131 16.1136 94.231 16.4216 95.2166 17.0376C96.2198 17.636 97.003 18.4808 97.5662 19.572C98.1294 20.6632 98.411 21.8952 98.411 23.268C98.411 24.6584 98.1294 25.8992 97.5662 26.9904C97.003 28.064 96.2198 28.9088 95.2166 29.5248C94.231 30.1232 93.131 30.4224 91.9166 30.4224C91.0014 30.4224 90.183 30.2288 89.4614 29.8416C88.7574 29.4544 88.2294 28.9704 87.8774 28.3896H87.6662L87.8774 30.2904V35.7024H84.419V16.536ZM91.3094 27.228C91.9606 27.228 92.5678 27.0608 93.131 26.7264C93.6942 26.392 94.143 25.9256 94.4774 25.3272C94.8118 24.7288 94.979 24.0424 94.979 23.268C94.979 22.4936 94.8118 21.8072 94.4774 21.2088C94.143 20.6104 93.6942 20.1528 93.131 19.836C92.5678 19.5016 91.9606 19.3344 91.3094 19.3344C90.6758 19.3344 90.0774 19.5016 89.5142 19.836C88.951 20.1528 88.5022 20.6104 88.1678 21.2088C87.8334 21.8072 87.6662 22.4936 87.6662 23.268C87.6662 24.0424 87.8334 24.7288 88.1678 25.3272C88.5022 25.9256 88.951 26.392 89.5142 26.7264C90.0774 27.0608 90.6758 27.228 91.3094 27.228Z" fill="#007AFF"/>
<path d="M100.831 11.0976H108.223C109.279 11.0976 110.247 11.3176 111.127 11.7576C112.025 12.1976 112.729 12.796 113.239 13.5528C113.75 14.3096 114.005 15.1368 114.005 16.0344C114.005 16.9848 113.767 17.812 113.292 18.516C112.835 19.2024 112.227 19.7304 111.471 20.1V20.3112C112.456 20.6632 113.239 21.2264 113.82 22.0008C114.401 22.7576 114.691 23.6728 114.691 24.7464C114.691 25.7848 114.41 26.7088 113.847 27.5184C113.301 28.3104 112.553 28.9264 111.603 29.3664C110.67 29.7888 109.631 30 108.487 30H100.831V11.0976ZM107.959 18.8064C108.734 18.8064 109.35 18.5952 109.807 18.1728C110.283 17.7328 110.52 17.1872 110.52 16.536C110.52 15.9024 110.291 15.3744 109.834 14.952C109.394 14.512 108.804 14.292 108.065 14.292H104.395V18.8064H107.959ZM108.355 26.7528C109.218 26.7528 109.887 26.5328 110.362 26.0928C110.855 25.6352 111.101 25.0456 111.101 24.324C111.101 23.6024 110.855 23.0128 110.362 22.5552C109.869 22.0976 109.165 21.8688 108.25 21.8688H104.395V26.7528H108.355ZM121.587 30.4224C119.968 30.4224 118.736 29.9208 117.891 28.9176C117.046 27.9144 116.624 26.5152 116.624 24.72V16.536H120.082V24.2976C120.082 25.2128 120.302 25.9344 120.742 26.4624C121.182 26.9728 121.763 27.228 122.484 27.228C123.47 27.228 124.253 26.8672 124.834 26.1456C125.415 25.424 125.705 24.5088 125.705 23.4V16.536H129.164V30H125.916V28.3104H125.705C125.3 28.9616 124.728 29.4808 123.989 29.868C123.268 30.2376 122.467 30.4224 121.587 30.4224ZM133.767 15.0576C133.151 15.0576 132.623 14.8376 132.183 14.3976C131.743 13.9576 131.523 13.4296 131.523 12.8136C131.523 12.1976 131.743 11.6784 132.183 11.256C132.623 10.816 133.151 10.596 133.767 10.596C134.383 10.596 134.902 10.816 135.324 11.256C135.764 11.6784 135.984 12.1976 135.984 12.8136C135.984 13.4296 135.764 13.9576 135.324 14.3976C134.902 14.8376 134.383 15.0576 133.767 15.0576ZM132.024 16.536H135.483V30H132.024V16.536ZM138.389 11.0976H141.848V30H138.389V11.0976ZM150.18 30.4224C148.965 30.4224 147.856 30.1232 146.853 29.5248C145.868 28.9088 145.084 28.064 144.504 26.9904C143.94 25.8992 143.659 24.6584 143.659 23.268C143.659 21.8952 143.94 20.6632 144.504 19.572C145.084 18.4808 145.868 17.636 146.853 17.0376C147.856 16.4216 148.965 16.1136 150.18 16.1136C151.095 16.1136 151.904 16.316 152.608 16.7208C153.312 17.108 153.849 17.592 154.219 18.1728H154.43L154.219 16.272V11.0976H157.651V30H154.43V28.3896H154.219C153.867 28.9704 153.33 29.4544 152.608 29.8416C151.904 30.2288 151.095 30.4224 150.18 30.4224ZM150.76 27.228C151.412 27.228 152.019 27.0608 152.582 26.7264C153.145 26.392 153.594 25.9256 153.928 25.3272C154.263 24.7288 154.43 24.0424 154.43 23.268C154.43 22.4936 154.263 21.8072 153.928 21.2088C153.594 20.6104 153.145 20.1528 152.582 19.836C152.019 19.5016 151.412 19.3344 150.76 19.3344C150.127 19.3344 149.528 19.5016 148.965 19.836C148.402 20.1528 147.953 20.6104 147.619 21.2088C147.284 21.8072 147.117 22.4936 147.117 23.268C147.117 24.0424 147.284 24.7288 147.619 25.3272C147.953 25.9256 148.402 26.392 148.965 26.7264C149.528 27.0608 150.127 27.228 150.76 27.228ZM164.53 29.3664L158.854 16.536H162.788L166.273 24.9048H166.484L169.837 16.536H173.691L165.375 35.7024H161.653L164.53 29.3664Z" fill="#262626"/>
</g>
<defs>
<linearGradient id="paint0_linear" x1="0" y1="0" x2="0" y2="40" gradientUnits="userSpaceOnUse">
<stop stop-color="#00B2FF"/>
<stop offset="1" stop-color="#007AFF"/>
</linearGradient>
<clipPath id="clip0">
<rect width="174" height="40" fill="white"/>
</clipPath>
</defs>
</svg>
